!!!COM:      Bach, Johann Sebastian
!!!CDT:      1685/03/31/-1750/07/28/
!!!OPR@@GER: Das wohltemperirte Clavier
!!!OVM@@GER: Band I
!!!OPR@ENG:  Well-Tempered Clavier
!!!OVM@ENG:  Book I
!!!OTL:      Prelude
!!!OKY:      F-sharp minor
!!!ONM:      no. 14
!!!SCT:      BWV 859
!!!OMV:      1
**kern	**kern	**kern	**kern
*clefF4	*clefF4	*	*clefG2
*k[f#c#g#]	*k[f#c#g#]	*	*k[f#c#g#]
*f#:	*f#:	*	*f#:
*M4/4	*M4/4	*	*M4/4
*met(c)	*met(c)	*	*met(c)
*MM74	*MM74	*MM74	*MM74
=1-	=1-	=1-	=1-
1F#	8A	1ryy	8r
.	8r	.	8cc#
.	8B	.	16dd
.	.	.	16cc#
.	8r	.	16b
.	.	.	16dd
.	8A	.	16cc#
.	.	.	16b
.	8r	.	16a
.	.	.	16cc#
.	8G#	.	16b
.	.	.	16a
.	8r	.	16g#
.	.	.	16b
=2	=2	=2	=2
8FF#	8F#	1ryy	16a
.	.	.	16g#
8F#	8r	.	16f#
.	.	.	16a
16A	4ryy	.	8cc#
16G#	.	.	.
16F#	.	.	8aa
16A	.	.	.
16G#	2ryy	.	8b#
16F#	.	.	.
16E	.	.	8gg#
16G#	.	.	.
16F#	.	.	8g#
16E	.	.	.
16D#	.	.	8ff#
16F#	.	.	.
=3	=3	=3	=3
16E	1ryy	1ryy	8cc#
16D#	.	.	.
16C#	.	.	8ee
16E	.	.	.
8F#	.	.	16a
.	.	.	16g#
8A	.	.	16f#
.	.	.	16a
16Dn	.	.	8b
16C#	.	.	.
16BB	.	.	8dd
16D	.	.	.
8E	.	.	16g#
.	.	.	16f#
8G#	.	.	16e
.	.	.	16g#
=4	=4	=4	=4
16C#	1ryy	1ryy	8a
16BB	.	.	.
16AA	.	.	8cc#
16C#	.	.	.
16D	.	.	16b
16C#	.	.	16cc#
16BB	.	.	16dd
16D	.	.	16ff#
16C#	.	.	16a
16BB	.	.	16b
16AA	.	.	16cc#
16C#	.	.	16ff#
16BB	.	.	16g#
16AA	.	.	16a
16GG#	.	.	16b
16BB	.	.	16ee#
=5	=5	=5	=5
16AA	1ryy	1ryy	8f#
16GG#	.	.	.
16FF#	.	.	8a
16AA	.	.	.
8D	.	.	16b
.	.	.	16cc#
8F#	.	.	16dd
.	.	.	16b
16BB	.	.	8g#
16AA	.	.	.
16GG#	.	.	8b
16BB	.	.	.
8E	.	.	16cc#
.	.	.	16dd
8G#	.	.	16ee
.	.	.	16cc#
=6	=6	=6	=6
16C#	1ryy	1ryy	8a
16BB	.	.	.
16AA	.	.	8cc#
16C#	.	.	.
16D	.	.	16ff#
16E	.	.	16ee
16F#	.	.	16dd
16A	.	.	16ff#
16C#	.	.	16ee
16D	.	.	16dd
16E	.	.	16cc#
16A	.	.	16ee
16BB	.	.	16dd
16C#	.	.	16cc#
16D	.	.	16b
16G#	.	.	16dd
=7	=7	=7	=7
8AA	1ryy	1ryy	16cc#
.	.	.	16b
16A	.	.	16a
16B	.	.	16g#
16c#	.	.	16a
16B	.	.	16b
16A	.	.	16cc#
16c#	.	.	16ee
16B	.	.	16g#
16A	.	.	16a
16G#	.	.	16b
16B	.	.	16ee
16A	.	.	16f#
16G#	.	.	16g#
16F#	.	.	16a
16A	.	.	16dd#
=8	=8	=8	=8
16G#	1ryy	1ryy	8e
16F#	.	.	.
16E	.	.	[8gg#
16G#	.	.	.
8c#	.	.	16gg#]
.	.	.	16ee
8e	.	.	16cc#
.	.	.	16b#
16A	.	.	8cc#
16G#	.	.	.
16F#	.	.	[8aa
16A	.	.	.
8d#	.	.	16aa]
.	.	.	16ff#
8f#	.	.	16dd#
.	.	.	16cc#
=9	=9	=9	=9
8G#	1ryy	1ryy	16b#
.	.	.	16dd#
8e	.	.	16gg#
.	.	.	16cc#
8F#	.	.	16aa
.	.	.	16gg#
8d#	.	.	16ff#
.	.	.	16aa
8E	.	.	16gg#
.	.	.	16ff#
8c#	.	.	16ee
.	.	.	16gg#
8D#X	.	.	16ff#
.	.	.	16ee
8B#	.	.	16dd#X
.	.	.	16ff#
=10	=10	=10	=10
8C#	1ryy	1ryy	16ee
.	.	.	16dd#
8c#	.	.	16cc#
.	.	.	16ee
16E#	.	.	8gg#
16F#	.	.	.
16G#	.	.	8b
16E#	.	.	.
16F#	.	.	16a
16G#	.	.	16g#
16A	.	.	16f#
16F#	.	.	16a
16D#	.	.	8ff#
16En	.	.	.
16F#	.	.	8dd#X
16D#	.	.	.
=11	=11	=11	=11
8G#	1ryy	1ryy	16b#
.	.	.	16a#
8C#	.	.	16g#
.	.	.	16ee
8F#	.	.	16an
.	.	.	16g#
8BB#	.	.	16f#
.	.	.	16dd#
8E	.	.	16g#
.	.	.	16f#
8C#	.	.	16e
.	.	.	16cc#
8D#	.	.	16f#
.	.	.	16e
8GG#	.	.	16d#X
.	.	.	16b#X
=12	=12	=12	=12
*	*	*staff:8	*
*	*	*clefG2	*
*	*	*k[f#c#g#]	*
8AA	1ryy	2ryy	16cc#
.	.	.	16b#
8FF#	.	.	16cc#
.	.	.	16ff#
16GG#	.	.	8.dd#t
16FF#	.	.	.
8GG#	.	.	.
.	.	.	16cc#
8CC#	.	8r	[2cc#
8r	.	8g#	.
8F#	.	16a	.
.	.	16g#	.
8r	.	16f#	.
.	.	16a	.
=13	=13	=13	=13
8E	1ryy	16g#	2cc#_
.	.	16f#	.
8r	.	16e	.
.	.	16g#	.
8D#	.	16f#	.
.	.	16e	.
8r	.	16d#	.
.	.	16f#	.
16C#	.	8e	8cc#]
16E	.	.	.
16F#	.	8r	8r
16G#	.	.	.
16A	.	4ryy	16f#
16G#	.	.	16g#
16F#	.	.	16a
16A	.	.	16cc#
=14	=14	=14	=14
*	*clefG2	*	*
16G#	2ryy	2ryy	16e
16F#	.	.	16f#
16E	.	.	16g#
16G#	.	.	16cc#
16F#	.	.	16d#
16E	.	.	16e
16D#	.	.	16f#
16F#	.	.	16b#
16E	4ryy	4ryy	8cc#
16D#	.	.	.
16C#	.	.	8c#
16BB	.	.	.
16AA#	8e	8f#	8cc#
16BB	.	.	.
16C#	8r	8ryy	8r
16AA#	.	.	.
=15	=15	=15	=15
16BB	8dn	8f#	8ddn
16C#	.	.	.
16D	8r	8ryy	8r
16BB	.	.	.
16C#	8c#	8e	8a#
16D	.	.	.
16E	8r	8ryy	8r
16C#	.	.	.
8D	8B	8f#	16b
.	.	.	16an
8r	8ryy	8r	16g#
.	.	.	16f#
8d	4ryy	8e	16g#
.	.	.	16a
8r	.	8r	16b
.	.	.	16g#
=16	=16	=16	=16
8c#	1ryy	8f#	16a
.	.	.	16b
8r	.	8r	16cc#
.	.	.	16a
8B	.	8g#	16b
.	.	.	16cc#
8r	.	8r	16dd
.	.	.	16b
16A	.	16a	16cc#
16B	.	16r	16b
16c#	.	8r	16a
16A	.	.	16g#
8d	.	4ryy	16f#
.	.	.	16ee
8F#	.	.	16dd
.	.	.	16cc#
=17	=17	=17	=17
16G#	1ryy	1ryy	16b
16A	.	.	16a
16B	.	.	16g#
16G#	.	.	16f#
8c#	.	.	16e#
.	.	.	16dd
8E#	.	.	16cc#
.	.	.	16b
16F#	.	.	16a
16FF#	.	.	16g#
16GG#	.	.	16f#
16AA	.	.	16en
16BB	.	.	16d
16C#	.	.	16a
16D	.	.	16g#
16BB	.	.	16f#
=18	=18	=18	=18
*	*	*staff:4	*
8.C#	1ryy	2ryy	16e#
.	.	.	16d#
.	.	.	8c#
16B	.	.	.
16A	.	.	16r
16G#	.	.	16b
16F#	.	.	16a
16E#	.	.	16g#
16F#	.	4ryy	16a
16G#	.	.	16b
16A	.	.	16cc#
16F#	.	.	16dd
8d	.	4f#	8.bT
8D	.	.	.
.	.	.	16cc#
=19	=19	=19	=19
*	*staff:4	*	*
8C#	4ryy	8e#	8cc#
8c#	.	8r	8r
16d	8g#	8b	8ee#X
16c#	.	.	.
16B	8r	8ryy	8r
16d	.	.	.
16c#	8a	8cc#	8ff#
16B	.	.	.
16A	8r	8ryy	8r
16c#	.	.	.
16B	8e#X	8cc#	8gg#
16A	.	.	.
16G#	8r	8ryy	8r
16B	.	.	.
=20	=20	=20	=20
16A	1ryy	1ryy	16r
16G#	.	.	16cc#
16F#	.	.	16ff#
16A	.	.	16ee
16B	.	.	16dd
16A	.	.	16cc#
16G#	.	.	16b
16B	.	.	16dd
16A	.	.	16cc#
16G#	.	.	16b
16F#	.	.	16a
16A	.	.	16cc#
16G#	.	.	16b
16F#	.	.	16a
16E#	.	.	16g#
16G#	.	.	16b
=21	=21	=21	=21
8F#	1ryy	1ryy	16a
.	.	.	16b
16AA	.	.	16cc#
16BB	.	.	16dd
16C#	.	.	16e#
16BB	.	.	16dd
16AA	.	.	16cc#
16GG#	.	.	16b
8FF#	.	.	16a
.	.	.	16g#
8BB	.	.	16a
.	.	.	16f#
8C#	.	.	8.e#X
8CC#	.	.	.
.	.	.	16f#
=22	=22	=22	=22
*	*	*staff:2	*
8FF#	1ryy	16r	[1f#
.	.	16A	.
8r	.	16B	.
.	.	16c#	.
8BB	.	16d	.
.	.	16c#	.
8r	.	16B	.
.	.	16d	.
8AA	.	16c#	.
.	.	16B	.
8r	.	16A	.
.	.	16c#	.
8GG#	.	16B	.
.	.	16A	.
8r	.	16G#	.
.	.	16B	.
=23	=23	=23	=23
16FF#	1ryy	8A	8f#]
16AA	.	.	.
16BB	.	8r	8r
16C#	.	.	.
16D	.	4ryy	16B
16C#	.	.	16c#
16BB	.	.	16d
16D	.	.	16f#
16C#	.	2ryy	16A
16BB	.	.	16B
16AA	.	.	16c#
16C#	.	.	16f#
*MM71	*MM71	*MM71	*MM71
16BB	.	.	16G#
16AA	.	.	16A
16GG#	.	.	16B
16BB	.	.	16e#
=24	=24	=24	=24
*MM67	*MM67	*MM67	*MM67
8AA	1ryy	16r	[4f#
.	.	16d	.
8BB	.	16c#	.
.	.	16B	.
*MM63	*MM63	*MM63	*MM63
8C#	.	8A	16f#]
.	.	.	8f#
8CC#	.	8G#	.
*MM43	*MM43	*MM43	*MM43
.	.	.	16e#
2FF#	.	2A#;y	2c#;y 2f#;
==	==	==	==
*-	*-	*-	*-
!!!AFR:  prelude
!!!EFL:  27/96
!!!END:  1994/01/14/
!!!VID:  673667856 Bach, BWV 859-01
!!!AST:  Baroque
!!!OCY:  Deutschland
!!!ODT:  1722///
!!!PDT:  1801///
!!!EED:  Walter Hewlett
!!!ENC:  Walter Hewlett
!!!YOR:  Bach Gesellschaft Edition xiv
!!!AFT:  enhanced SCORE
!!!RDT:  2011/10/07/ by Andreas Kornstaedt using massScr2hmd
!!!SCA1: Thematisch-systematisches Verzeichnis der musikalischen Werke 
!!!SCA2: Johann Sebastian Bach: Bach-Werke-Verzeichnis (Schmieder)
!!!YEC1: Copyright 1994, 2000 Center for Computer Assisted Research 
!!!YEC2: in the Humanities
!!!YEM1: Rights to all derivative editions reserved.
!!!YEM2: Refer to licensing agreement for further details.
!!!YEN:  United States of America
!!!ref:  @{OTL}, @{SCT}
!!muse2ps: T^@{OTL} @{ONM} in @{OKY}^C^J.S. Bach\n@{SCT}-@{OMV}^
!!muse2ps: u^@{OPR@ENG}, @{OVM@ENG}^j
